assets/images/_common/compass-simple.svg

<svg fill="none" height="25" viewBox="0 0 25 25" width="25" xmlns="http://www.w3.org/2000/svg"><g fill="#beaba1"><path d="m12.3923 1.09937 1.2 10.11373 10.1137 1.2-10.1137 1.2-1.2 10.1137-1.2-10.1137-10.11369-1.2 10.11369-1.2z"/><path d="m18.3923 6.39233-5.1514 5.99997 5.1514 6-6-5.1514-5.99997 5.1514 5.15147-6-5.15147-5.99997 5.99997 5.15147z"/></g></svg>

<svg width="25" height="25" viewBox="0 0 25 25" fill="none" xmlns="http://www.w3.org/2000/svg">
<path d="M12.3923 1.09937L13.5923 11.2131L23.706 12.4131L13.5923 13.6131L12.3923 23.7268L11.1923 13.6131L1.07861 12.4131L11.1923 11.2131L12.3923 1.09937Z" fill="#BEABA1"/>
<path d="M18.3923 6.39233L13.2409 12.3923L18.3923 18.3923L12.3923 13.2409L6.39233 18.3923L11.5438 12.3923L6.39233 6.39233L12.3923 11.5438L18.3923 6.39233Z" fill="#BEABA1"/>
</svg>
